packages/kaspersky-hexa-ui-icons/src/iconsSVGs/64x42/FlagTn.svg

<svg xmlns="http://www.w3.org/2000/svg" width="64" height="42" fill="none" viewBox="0 0 64 42"><g clip-path="url(#a)"><rect width="64" height="42" fill="#fff" rx="5"/><path fill="#e92434" d="M0 0h64v42H0z"/><path fill="#fff" fill-rule="evenodd" d="M32 33.6c6.9588 0 12.6-5.6412 12.6-12.6S38.9588 8.4 32 8.4 19.4 14.0412 19.4 21 25.0412 33.6 32 33.6m.0001-2.7999c1.2896 0 2.5211-.2491 3.6489-.7019a6 6 0 0 1-.149.0017c-4.2526 0-7.7-4.0742-7.7-9.1s3.4474-9.1 7.7-9.1q.0741 0 .1481.0017c-1.1276-.4525-2.3587-.7015-3.648-.7015-5.4124 0-9.8 4.3876-9.8 9.8s4.3876 9.8 9.8 9.8m2.3715-4.2245 2.5721-3.1185 3.7868 1.4146-2.171-3.4099 2.5155-3.1642-3.9139 1.011-2.232-3.3703-.2479 4.0348-3.8951 1.0814 3.7607 1.4825z" clip-rule="evenodd"/></g><defs><clipPath id="a"><rect width="64" height="42" fill="#fff" rx="5"/></clipPath></defs></svg>

<svg width="64" height="42" viewBox="0 0 64 42" fill="none" xmlns="http://www.w3.org/2000/svg">
<g clip-path="url(#clip0_37941_2363)">
<rect width="64" height="42" rx="5" fill="white"/>
<rect width="64" height="42" fill="#E92434"/>
<path fill-rule="evenodd" clip-rule="evenodd" d="M32 33.6C38.9588 33.6 44.6 27.9588 44.6 21C44.6 14.0412 38.9588 8.40002 32 8.40002C25.0412 8.40002 19.4 14.0412 19.4 21C19.4 27.9588 25.0412 33.6 32 33.6ZM32.0001 30.8001C33.2897 30.8001 34.5212 30.551 35.649 30.0982C35.5994 30.0994 35.5497 30.0999 35.5 30.0999C31.2474 30.0999 27.8 26.0257 27.8 20.9999C27.8 15.9741 31.2474 11.8999 35.5 11.8999C35.5494 11.8999 35.5988 11.9005 35.6481 11.9016C34.5205 11.4491 33.2894 11.2001 32.0001 11.2001C26.5877 11.2001 22.2001 15.5877 22.2001 21.0001C22.2001 26.4125 26.5877 30.8001 32.0001 30.8001ZM34.3716 26.5756L36.9437 23.4571L40.7305 24.8717L38.5595 21.4618L41.075 18.2976L37.1611 19.3086L34.9291 15.9383L34.6812 19.9731L30.7861 21.0545L34.5468 22.537L34.3716 26.5756Z" fill="white"/>
</g>
<defs>
<clipPath id="clip0_37941_2363">
<rect width="64" height="42" rx="5" fill="white"/>
</clipPath>
</defs>
</svg>
